X:56
T:Polska fr{\aa}n Sm{\aa}land
R:sl-polska
A:Sm{\aa}land
Z:id:hn-sp-56
M:3/4
L:1/16
K:D
dcdc dcdc dcde|f2fe d2dc B4|BABA BABA BABc|d2dc B2BA G3F|
E2G2 B2e2 g2e2|edcd e4 d4:||:fgef d2d2 e3f|gfef g2g2 e4|
fgef d2d2 e3f|gfed c2d2 d4:|

